X:9
T:Black haired Nymph forsake me not
T:Mo nighean dubh na tr\'eig mi
R:Slow Air
S:Simon Fraser Collection
N:No.142
O:Scottish
M:C
L:1/8
Q:1/4=70
K:E Minor
(E/4^D/4E/4F/4|
G>)EG>A B3/2(A1/12B1/12c1/12d1/12e1/12f1/12 g>)e|
d>B c>A B2 E (E/4^D/4E/4F/4|
G>)EG>A B3/2(A1/12B1/12c1/12d1/12e1/12f1/12 g>)d|
B<G A>G F2 D:|
E/>f/|g>af>g e>^dB>f|g>ef>^d e2 B (g/4f/4g/4a/4|
b>)ag>f e3/2(g/4f/8a/8) g>e|
d>Bc>A B2 E (E/4^D/4E/4F/4|
G>)EG>A B3/2(A1/12B1/12c1/12d1/12e1/12f1/12 g>)e|
d>B c>A B2 E (E/4^D/4E/4F/4|
G>)EG>A B3/2(A1/12B1/12c1/12d1/12e1/12f1/12 g>)d|
B<G A>G F2 E||

